school/img/country/GD.svg

<svg width="13" height="12" viewBox="0 0 13 12" fill="none" xmlns="http://www.w3.org/2000/svg">
<rect width="13" height="12" rx="2" fill="white"/>
<mask id="mask0" mask-type="alpha" maskUnits="userSpaceOnUse" x="0" y="0" width="13" height="12">
<rect width="13" height="12" rx="2" fill="white"/>
</mask>
<g mask="url(#mask0)">
<rect width="13" height="12" fill="#E42235"/>
<rect x="1.23816" y="1.59998" width="10.5238" height="8.8" fill="#079B77"/>
<mask id="mask1" mask-type="alpha" maskUnits="userSpaceOnUse" x="1" y="1" width="11" height="10">
<rect x="1.23816" y="1.59998" width="10.5238" height="8.8" fill="white"/>
</mask>
<g mask="url(#mask1)">
<path fill-rule="evenodd" clip-rule="evenodd" d="M2.03981 6.07904C2.21508 6.44152 2.46671 6.68079 2.70109 6.7422C2.83012 6.776 2.59388 6.01129 2.69682 5.92816C2.78466 5.85722 3.20728 6.49315 3.24429 6.36048C3.32944 6.05522 3.27921 5.62294 3.08978 5.23117C2.81802 4.66914 2.80741 5.04009 2.07273 4.63745C2.14954 5.21326 1.76805 5.51701 2.03981 6.07904V6.07904Z" fill="#FFD938"/>
<path fill-rule="evenodd" clip-rule="evenodd" d="M6.50006 5.99998L11.762 1.59998H1.23816L6.50006 5.99998ZM6.50006 5.99998L11.762 10.4H1.23816L6.50006 5.99998Z" fill="#FFD93B"/>
<path fill-rule="evenodd" clip-rule="evenodd" d="M6.50001 8C7.35474 8 8.04763 7.10457 8.04763 6C8.04763 4.89543 7.35474 4 6.50001 4C5.64529 4 4.95239 4.89543 4.95239 6C4.95239 7.10457 5.64529 8 6.50001 8Z" fill="url(#paint0_linear)"/>
<path fill-rule="evenodd" clip-rule="evenodd" d="M6.50006 6.617L5.77232 7.29439L6.04596 6.19064L5.32256 5.50554L6.21941 5.50077L6.50006 4.39996L6.78071 5.50077L7.67756 5.50554L6.95416 6.19064L7.22779 7.29439L6.50006 6.617Z" fill="#FFD938"/>
</g>
</g>
<defs>
<linearGradient id="paint0_linear" x1="4.95239" y1="4" x2="4.95239" y2="8" gradientUnits="userSpaceOnUse">
<stop stop-color="#E21C30"/>
<stop offset="1" stop-color="#CE1225"/>
</linearGradient>
</defs>
</svg>

<svg width="13" height="12" fill="none" xmlns="http://www.w3.org/2000/svg"><rect width="13" height="12" rx="2" fill="#fff"/><mask id="a" maskUnits="userSpaceOnUse" x="0" y="0" width="13" height="12"><rect width="13" height="12" rx="2" fill="#fff"/></mask><g mask="url(#a)"><path fill="#E42235" d="M0 0h13v12H0z"/><path fill="#079B77" d="M1.238 1.6h10.524v8.8H1.238z"/><mask id="b" maskUnits="userSpaceOnUse" x="1" y="1" width="11" height="10"><path fill="#fff" d="M1.238 1.6h10.524v8.8H1.238z"/></mask><g mask="url(#b)" fill-rule="evenodd" clip-rule="evenodd"><path d="M2.04 6.079c.175.363.427.602.661.663.13.034-.107-.73-.004-.814.088-.07.51.565.547.432.085-.305.035-.737-.154-1.129-.272-.562-.283-.19-1.017-.594.077.576-.305.88-.033 1.442z" fill="#FFD938"/><path d="M6.5 6l5.262-4.4H1.238L6.5 6zm0 0l5.262 4.4H1.238L6.5 6z" fill="#FFD93B"/><path d="M6.5 8c.855 0 1.548-.895 1.548-2S7.355 4 6.5 4c-.855 0-1.548.895-1.548 2S5.645 8 6.5 8z" fill="url(#paint0_linear)"/><path d="M6.5 6.617l-.728.677.274-1.103-.723-.685.896-.005L6.5 4.4l.28 1.1.898.006-.724.685.274 1.103-.728-.677z" fill="#FFD938"/></g></g><defs><linearGradient id="paint0_linear" x1="4.952" y1="4" x2="4.952" y2="8" gradientUnits="userSpaceOnUse"><stop stop-color="#E21C30"/><stop offset="1" stop-color="#CE1225"/></linearGradient></defs></svg>
